X: 38
T: School of Ragtime
%%abc-version 2.0
%%abcx-abcm2ps-target-version 5.9.1 (29 Sep 2008)
%%abc-creator hum2abc beta
%%abcx-conversion-date 2021/07/20 09:00:57
%%abc-copyright 2021 Craig Stuart Sapp
%%abc-edited-by Craig Stuart Sapp
%%abc-edited-by Craig Stuart Sapp
%%abcx-initial-encoding-date 2005/02/02
%%humdrum-veritas 3809235039
%%humdrum-veritas-data 3990303336
%%removed 0's from note length
%%linebreak <none>
%%barnumbers 0
L: 1/16
M: 2/4
N: Derived from school.krn
Q: "Slow march tempo (Count Two)" 1/4=100
V: 1 clef=treble
V: 2 clef=treble
V: 3 clef=bass
K: C
[V:1] [aA] [I:setbarnb 1]| 
[V:2] [aA]- | 
[V:3] z | 
[V:1] [aA][fc][a2A2] [a2A2][aA][gG] | 
[V:2] [aA][fc][a2A2] [a2A2][aA][gG]- | 
[V:3] [F2C2A,2F,2][F2C2A,2F,2] [^D2C2A,2^F,2][D2C2A,2F,2] | 
[V:1] [gG][ec][g2G2] [g2G2][gG][gG] | 
[V:2] [gG][ec][g2G2] [g2G2][gG][gG]- | 
[V:3] [E2C2G,2][E2C2G,2] [E2C2G,2][E2C2G,2] | 
[V:1] [gG][dB][gG]B d[gG][gG][cE] | 
[V:2] [gG][dB][gG]B d[g2G2][cE]- | 
[V:3] [F2B,2G,2][F2B,2G,2] [F2B,2G,2][D2B,2G,2] | 
[V:1] [c4E4][c2E2][cE] :|]  
[V:2] [c4E4]-[c2E2]-[cE] :|]  
[V:3] C2G,2 C,2-C, :|]  
[V:1]  [K:C] [K:clef=treble][M:2/4][c'c][c'c][c'c][bB] [bB][aA][a2A2] | 
[V:2]  [K:C] [K:clef=treble][M:2/4][c'2c2]>[b2B2]- [bB][aA][a2A2] | 
[V:3]  [K:C] [K:clef=bass][M:2/4][F2C2A,2F,2]>[^D2-C2A,2-^F,2-] [D2B,2A,2F,2][D2C2A,2F,2] | 
[V:1] [aA][aA][aA][gG] [gG]e[e2^c2G2] | 
[V:2] [a2A2]>[g2G2]- [gG]e[e2^c2G2] | 
[V:3] [^D2C2A,2^F,2]>[E2C2G,2]- [E2C2G,2][A,2A,,2] | 
[V:1] x4eBd2 & [e=c^F][ecF][ecF][eB=F] [B2F2][B2F2] | 
[V:2] x4eBd2 & [e2=c2^F2]>[e2-B2=F2] [B2F2][B2F2] | 
[V:3] [A,2A,,2]>[G,2G,,2]- [G,2G,,2][G,2G,,2] | 
[V:1] [c4E4][c2E2] z2 :|]  
[V:2] [c4E4]-[c2E2] z2 :|]  
[V:3] [C2C,2]G,2 C,2 z2 :|]  
[V:1]  [K:C] [K:clef=treble][M:2/4][aA][aA][aA][bB] [bB][bB][bB][aA] | 
[V:2]  [K:C] [K:clef=treble][M:2/4][afA][a2f2A2][b^dB]- [bdB][b2d2B2][adA] | 
[V:3]  [K:C] [K:clef=bass][M:2/4][F2C2A,2F,2][F2C2A,2F,2] [^D2C2A,2^F,2][D2C2A,2F,2] | 
[V:1] [aA][gG][gG][gG] [gG][fF][fF][eE] | 
[V:2] x4gf2e & [aeA][g2e2c2G2][ge^cG]- [gecG][c3G3] | 
[V:3] [ECG,][E2C2G,2][A,A,,]-[A,4A,,4] | 
[V:1] [e=c^F][cF][cF][dB=F] [dBF][eBF][d2B2F2] | 
[V:2] ec2d- ded2 & [=c2^F2]>[B2=F2]- [B2F2][B2F2] | 
[V:3] [A,2A,,2]>[G,2G,,2]- [G,2G,,2][G,2G,,2] | 
[V:1] [c4E4][c2E2] z2 :|]  
[V:2] [c4E4]-[c2E2] z2 :|]  
[V:3] [C2C,2]G,2 C,2 z2 :|]  
[V:1]  [K:C] [K:clef=treble][M:2/4][aA]cf[aA] [aA]c^d^f | 
[V:2]  [K:C] [K:clef=treble][M:2/4][aA]cf[aA]- [aA]c^d^f | 
[V:3]  [K:C] [K:clef=bass][M:2/4][F2C2A,2F,2][F2C2A,2F,2] [^D2C2A,2^F,2][D2C2A,2] | 
[V:1] gce[gG] [gG]Gce | 
[V:2] gce[gG]- [gG]Gce | 
[V:3] [E2C2G,2][E2C2G,2] [E2C2G,2][E2C2G,2] | 
[V:1] [gG]Bd[gG] [gG]Bdg | 
[V:2] [gG]Bd[gG]- [gG]Bdg | 
[V:3] [F2B,2G,2][F2B,2G,2] [F2B,2G,2][F2B,2G,2] | 
[V:1] c4[c'2e2c2] z2 :|]  
[V:2] c4[c'2e2c2] z2 :|]  
[V:3] E4C,2 z2 & C2G,2x4 :|]  
[V:1]  [K:C] [K:clef=treble][M:2/4]a[fcA][fcA]a [f2c2A2]a[fcA] | 
[V:2]  [K:C] [K:clef=treble][M:2/4]a[f2c2A2]a [f2c2A2]a[fcA]- | 
[V:3]  [K:C] [K:clef=bass][M:2/4][F,2F,,2][F2C2A,2] C,2[F2C2A,2] | 
[V:1] [fcA]a[f2c2A2] [a2f2c2A2][a2^d2c2A2] | 
[V:2] [fcA]a[f2c2A2] [a2f2c2A2][a2^d2c2A2] | 
[V:3] [F,2F,,2][F2C2A,2] [F,2F,,2][^F,2^F,,2] | 
[V:1] g[ecG][ecG]e [e2c2G2]g[ecG] | 
[V:2] g[e2c2G2]g [e2c2G2]g[ecG]- | 
[V:3] [G,2G,,2][E2C2G,2] C,2[E2C2G,2] | 
[V:1] [ecG]g[e2c2G2] [g2e2c2G2][g2e2^A2G2] | 
[V:2] [ecG]g[e2c2G2] [g2e2c2G2][g2e2^A2G2] | 
[V:3] C,2[E2C2G,2] [C2C,2][^C2^C,2] | 
[V:1] [M:2/4]g[fBG][fBG]g [d2B2G2]g[fBG] | 
[V:2] [M:2/4]g[f2B2G2]g [d2B2G2]g[fBG]- | 
[V:3] [M:2/4][D2D,2][D2B,2G,2] [G,2G,,2][D2B,2G,2] | 
[V:1] [fBG]g[d2B2G2] [g2d2B2G2][g2f2d2B2] | 
[V:2] [fBG]g[d2B2G2] [g2d2B2G2][g2f2d2B2] | 
[V:3] [D2D,2][F2B,2G,2] [G,2G,,2][F2B,2G,2] | 
[V:1] [c'8e8c8] | 
[V:2] [c'8e8c8]- | 
[V:3] C,2E,G, A,G,2E, | 
[V:1] [c'2e2c2] z2 [c'2e2c2] z2 :|]  
[V:2] [c'2e2c2] z2 [c'2e2c2] z2 :|]  
[V:3] C,2 z2 [C,2C,,2] z2 :|]  
[V:1]  [K:C] [K:clef=treble][M:2/4]AAAB cAAB | 
[V:2]  [K:C] [K:clef=treble][M:2/4]A2>B2 cA2B | 
[V:3]  [K:C] [K:clef=bass][M:2/4]A,2>B,2 CA,2B, | 
[V:1] AAAB B^GA2 | 
[V:2] A2>B2- B^GA2 | 
[V:3] A,2>B,2- B,^G,A,2 | 
[V:1] =GGGA cGGA | 
[V:2] =G2>A2 cG2A | 
[V:3] =G,2>A,2 CG,2A, | 
[V:1] GGGA A^FG2 | 
[V:2] G2>A2- A^FG2 | 
[V:3] G,2>A,2- A,^F,G,2 | 
[V:1] [M:2/4]=FABc cBBA | 
[V:2] [M:2/4]=FABc- cB2A- | 
[V:3] [M:2/4]=F,A,B,C- CB,2A,- | 
[V:1] AG^FG AGGC | 
[V:2] AG^FG AG2C | 
[V:3] A,G,^F,G, A,G,2C, | 
[V:1] EEED DED2 | 
[V:2] EE2D- DED2 | 
[V:3] E,E,2D,- D,E,D,2 | 
[V:1] C4[c2G2E2C2] z2 :|]  
[V:2] C4[c2G2E2C2] z2 :|]  
[V:3] C,4[C,2C,,2] z2 :|]  


